dist/svg/sort-up.svg

<!-- Generated by Trend Micro Style Portal -->
<svg version="1.1" xmlns="http://www.w3.org/2000/svg" width="16" height="16" viewBox="0 0 16 16">
  <title>sort-up</title>
  <path fill="rgb(34,34,34)" d="M10.3 8l-2.3-2.19v6.19h-1v-6.19l-2.3 2.19-0.7-0.667 3.5-3.333 3.5 3.333z"></path>
</svg>

<svg width="16" height="16" viewBox="0 0 16 16" fill="rgb(34, 34, 34)" xmlns="http://www.w3.org/2000/svg"><title>sort-up</title><path d="M10.3 8L8 5.81V12H7V5.81L4.7 8L4 7.333L7.5 4L11 7.333L10.3 8Z" fill="rgb(34, 34, 34)" fill-opacity="1.00"/></svg>
